X:0260
T:To danton me.
M:C
L:1/8
Q:1/4=112
I: :: :: :| ::
Z:Jack Campin * www.campin.me.uk * 2009
K:A Dorian
 B>d | e2      A>B     A2     dc      | B>dA>B                    G2     \
 g>a |(ba)(ge)        (ge)(TdB)       | e2           A>B          A2   :|
 B>A | G2     (g>a)    g3         a   |(ba)(ge)                   d3g   |\
       e2      a>b     a3         b   |(c'b)(Tag)                 e2
 g>a | b2     (d'b)    a2     ba      | g>age                    (de)g>a|\
      (ba)(ge)        (ge)TdB         | e2           AB           A2   :|
 B>d | e2      A>B     A(gTfe)        |(d/e/d/c/)   (B/c/B/A/)    G2     \
(g>a)| bgab            GABd           | e2           A>B          A2   :|
 B>A | G2     (Bd)     g3         a   |(b/a/)(g/f/) (a/g/)(f/e/)  d3g   |\
       e>d(eg)         a>(gab)        | c'b         (c'/b/)(a/g/) e2
 g>a | b>d'c'b         a>c'ba         | g>agB                     dega  |\
      (b/a/g) (a/g/e) (g/e/d) e/d/B/d/| e2           A>B          A2   :|
<end>
<start>
